img/svg/16/net/galaxy.svg

<svg xmlns="http://www.w3.org/2000/svg" viewBox="0 0 16 16" enable-background="new 0 0 16 16"><path d="M16 0v2h-14v14h-2v-16h16zm-2 14h-11v2h13v-13h-2v11zm-11-1h10v-7h-2v5h-8v2zm10-10h-10v7h2v-5h8v-2zm-3 7v-4h-4v4h4z" fill="#ccc"/></svg>

<svg xmlns="http://www.w3.org/2000/svg" viewBox="0 0 16 16"><path fill="#ccc" d="M16 0v2H2v14H0V0h16zm-2 14H3v2h13V3h-2v11zM3 13h10V6h-2v5H3v2zM13 3H3v7h2V5h8V3zm-3 7V6H6v4h4z"/></svg>
